images/swt.svg

<svg height="250" viewBox="0 0 250 250" width="250" xmlns="http://www.w3.org/2000/svg"><path d="m0 0h250v250h-250z" fill="#efd96f"/><g fill="#333"><path d="m177.875 91.5c-28.5 0-52 22.875-73.25 41.875-6.125-5.375-13-12-18.25-18.25-.5-.625-1.25-.75-1.625-.5-.5.375-.625 1.125-.125 1.625 4.875 6 11.375 13.25 17.5 19.375-11.375 10.75-28.75 23.75-42.75 23.75-28.25 0-28.375-39.125-3.625-46.5 1.125-.25 1.125-1.625 0-1.25-32.375 8-30.625 53.625 4.25 53.625 16.625 0 31.875-11.125 47.25-24.25 16.625 15 37.625 27.25 64.625 27.25 68.5 0 66.5-76.75 6-76.75zm-6.5 70.875c-21.625-.125-42.625-9.625-61-24 20.875-18.125 42-38.875 66.875-38.875 48.5 0 49.75 63.25-5.875 62.875zm0 0"/><path d="m77.5 107.625c0 3.867188-3.132812 7-7 7s-7-3.132812-7-7 3.132812-7 7-7 7 3.132812 7 7zm0 0"/></g></svg>

<svg xmlns="http://www.w3.org/2000/svg" xmlns:xlink="http://www.w3.org/1999/xlink" width="250px" height="250px" viewBox="0 0 250 250" version="1.1">
<g id="surface1">
<rect x="0" y="0" width="250" height="250" style="fill:rgb(93.725491%,85.09804%,43.529412%);fill-opacity:1;stroke:none;"/>
<path style=" stroke:none;fill-rule:nonzero;fill:rgb(20%,20%,20%);fill-opacity:1;" d="M 177.875 91.5 C 149.375 91.5 125.875 114.375 104.625 133.375 C 98.5 128 91.625 121.375 86.375 115.125 C 85.875 114.5 85.125 114.375 84.75 114.625 C 84.25 115 84.125 115.75 84.625 116.25 C 89.5 122.25 96 129.5 102.125 135.625 C 90.75 146.375 73.375 159.375 59.375 159.375 C 31.125 159.375 31 120.25 55.75 112.875 C 56.875 112.625 56.875 111.25 55.75 111.625 C 23.375 119.625 25.125 165.25 60 165.25 C 76.625 165.25 91.875 154.125 107.25 141 C 123.875 156 144.875 168.25 171.875 168.25 C 240.375 168.25 238.375 91.5 177.875 91.5 Z M 171.375 162.375 C 149.75 162.25 128.75 152.75 110.375 138.375 C 131.25 120.25 152.375 99.5 177.25 99.5 C 225.75 99.5 227 162.75 171.375 162.375 Z M 171.375 162.375 "/>
<path style=" stroke:none;fill-rule:nonzero;fill:rgb(20%,20%,20%);fill-opacity:1;" d="M 77.5 107.625 C 77.5 111.492188 74.367188 114.625 70.5 114.625 C 66.632812 114.625 63.5 111.492188 63.5 107.625 C 63.5 103.757812 66.632812 100.625 70.5 100.625 C 74.367188 100.625 77.5 103.757812 77.5 107.625 Z M 77.5 107.625 "/>
</g>
</svg>
